!!!OTL: Schlechte Wirthschaft.
!!!OTL-incipit: ACH MUTTER ES HUNGERT MICH
!!!ARE: Europa, Mitteleuropa, Deutschland, Niederrhein
!!!SCT: Z1352
!!!YEM: Copyright 1995, estate of Helmut Schaffrath.
**kern	**text
*ICvox	*
*M4/4	*
*met(c)	*
*k[b-e-]	*
*g:	*
!LO:TX:a:t=Am Niederrhein.	!
{4d	Ach
=1	=1
4g	Mutter,
8f#	.
8f#	ach
4g	Mutter,
8a	.
8a	es
=2	=2
4.b-	hun-
8cc	-gert
4dd;	mich,
8r}	.
{8dd	o
=3	=3
4.dd	gieb
8dd	mir
4.ee-	Brod,
8dd	ſonſt
=4	=4
4.cc	ſter-
8b-	-be
4.a;}	ich!
{8f	Wart
=5	=5
4.b-	nur,
8cc	wart
4.dd	nur,
8dd	mein
=6	=6
4dd	lie-
4g	-bes
4.ee-}	Kind,
{8dd	wir
=7	=7
4cc	wollen
4b-	.
4a	morgen
4g	.
=8	=8
4.a	ſäen
8b-/	ge-
4g;}	-ſchwind.
==	==
!!!AGN: Zech -, Schalks - Lied
!!!ONB: ESAC (Essen Associative Code) Database: ZUCCAL
!!!AMT: simple quadruple
!!!AIN: vox
!!!EED: Helmut Schaffrath
!!!EEV: 1.0
!!!GTL: VIII. Zech- und Schalks-Lieder.
!!!URL-scan: https://www.digitale-sammlungen.de/de/view/bsb11160573?page=645
!!!ENC: Anna Maria Matuszewska
!!!EEV: 2025/02/07
*-	*-
